packages/tokens/icons/crawlingBot/size16Px.svg

<svg viewBox="0 0 16 16" fill="none" xmlns="http://www.w3.org/2000/svg" width="1em" height="1em"><rect x="8" y="5.33337" width="4.00001" height="4.00001" rx="1" transform="rotate(45 8 5.33337)" stroke="currentColor" stroke-linecap="round" stroke-linejoin="round"/><rect width="2" height="2" rx="1" transform="matrix(0.707107 0.707107 0.707107 -0.707107 6.5 4.41418)" stroke="currentColor" stroke-linecap="round" stroke-linejoin="round"/><path d="M10.6667 8H13.3334" stroke="currentColor" stroke-linecap="round" stroke-linejoin="round"/><path d="M2.66675 8H5.33342" stroke="currentColor" stroke-linecap="round" stroke-linejoin="round"/><path d="M10 7L12.2071 4.79289C12.3946 4.60536 12.5 4.351 12.5 4.08579L12.5 1.5" stroke="currentColor" stroke-linecap="round" stroke-linejoin="round"/><path d="M6 7L3.79289 4.79289C3.60536 4.60536 3.5 4.351 3.5 4.08579L3.5 1.5" stroke="currentColor" stroke-linecap="round" stroke-linejoin="round"/><path d="M10 9L12.2071 11.2071C12.3946 11.3946 12.5 11.649 12.5 11.9142L12.5 14.5" stroke="currentColor" stroke-linecap="round" stroke-linejoin="round"/><path d="M6 9L3.79289 11.2071C3.60536 11.3946 3.5 11.649 3.5 11.9142L3.5 14.5" stroke="currentColor" stroke-linecap="round" stroke-linejoin="round"/></svg>

<svg xmlns="http://www.w3.org/2000/svg" fill="none" viewBox="0 0 16 16" width="1em" height="1em"><rect width="4" height="4" x="8" y="5.333" stroke="currentColor" stroke-linecap="round" stroke-linejoin="round" rx="1" transform="rotate(45 8 5.333)"/><rect width="2" height="2" stroke="currentColor" stroke-linecap="round" stroke-linejoin="round" rx="1" transform="scale(1 -1) rotate(-45 -2.078 -10.053)"/><path stroke="currentColor" stroke-linecap="round" stroke-linejoin="round" d="M10.667 8h2.666M2.667 8h2.666M10 7l2.207-2.207a1 1 0 0 0 .293-.707V1.5M6 7 3.793 4.793a1 1 0 0 1-.293-.707V1.5M10 9l2.207 2.207a1 1 0 0 1 .293.707V14.5M6 9l-2.207 2.207a1 1 0 0 0-.293.707V14.5"/></svg>
